!!!!SEGMENT: Any2021-Qui_prophetice_prompsisti-Domine_miserere.krn
!!!id: Any2021
!!!AGN: Motet
!!!voices: 5
!!!COM: Anonymous
!!!OPR: Qui prophetice prompsisti
!!!OTL: Domine miserere
**kern	**kern	**kern	**kern	**kern
*part5	*part4	*part3	*part2	*part1
*staff5	*staff4	*staff3	*staff2	*staff1
*I"Bassus	*I"Tenor II	*I"Tenor I	*I"Altus	*I"Superius
*I'B	*I'T. II	*I'T. I	*I'A	*I'S
*clefF4	*clefGv2	*clefGv2	*clefG2	*clefG2
*k[b-]	*k[b-]	*k[b-]	*k[b-]	*k[b-]
*F:	*F:	*F:	*F:	*F:
*M2/1	*M2/1	*M2/1	*M2/1	*M2/1
*met(C|)	*met(C|)	*met(C|)	*met(C|)	*met(C|)
!!section: Quinta pars: Domine miserere
!!!OMD: Quinta pars: Domine miserere
=1	=1	=1	=1	=1
!	!	!	!	!LO:TX:a:t=Transcribed from the keyboard tablature Berlin 119
0r	0r	1e	0r	0r
.	.	1d	.	.
=2	=2	=2	=2	=2
0r	0r	1d	0r	1a
.	.	1e	.	1g
=3	=3	=3	=3	=3
0r	0r	1r	0r	1g
.	.	1f	.	1a
=4	=4	=4	=4	=4
0r	0r	1d	0r	1.b-y
.	.	1c	.	.
.	.	.	.	[2g
=5	=5	=5	=5	=5
0r	0r	1BnX	0r	1g]
.	.	1c	.	1f
=6	=6	=6	=6	=6
0r	0r	1e	0r	1e
.	.	1e	.	1g
=7	=7	=7	=7	=7
0r	0r	2r	0r	1a
.	.	1e	.	.
.	.	.	.	1a
.	.	2f	.	.
=8	=8	=8	=8	=8
1G	0r	2.g	0r	2r
.	.	.	.	2b-y
.	.	4f	.	.
1G	.	2e	.	2g
.	.	2d	.	2b-y
=9	=9	=9	=9	=9
1A	0r	1c	0r	4cc
.	.	.	.	4b-y
.	.	.	.	4a
.	.	.	.	4g
1B-y	.	2r	.	1f
.	.	2d	.	.
=10	=10	=10	=10	=10
1G	0r	1e	0r	1g
1F	.	1f	.	1a
=11	=11	=11	=11	=11
1E	0r	2.g	0r	2r
.	.	.	.	2.g
.	.	4f	.	.
1G	.	2e	.	.
.	.	.	.	4a
.	.	2d	.	2b-y
=12	=12	=12	=12	=12
2.A	0r	2f	0r	1cc
.	.	2e	.	.
4G	.	.	.	.
2F	.	2d	.	1a
2E	.	2c	.	.
=13	=13	=13	=13	=13
2D	0r	2B-y	0r	2b-y
2C	.	1A	.	2cc
1BB-y	.	.	.	1dd
.	.	2G	.	.
=14	=14	=14	=14	=14
1AA	1r	0A	0r	0cc
2r	1A	.	.	.
2AA	.	.	.	.
=15	=15	=15	=15	=15
1C	1G	2r	1e	2r
.	.	2E	.	2g
2BB-y	1G	1G	1d	1b-y
2GG	.	.	.	.
=16	=16	=16	=16	=16
1D	1A	2F	1d	2a
.	.	2D	.	2f
2AA	1r	1A	1e	1cc
2C	.	.	.	.
=17	=17	=17	=17	=17
2D	0r	2F	0f	2a
2BB-y	.	2D	.	2b-y
1D	.	1F	.	1a
=18	=18	=18	=18	=18
1GG	0B-y	1G	0d	1g
2r	.	2r	.	2r
2GG	.	2d	.	2g
=19	=19	=19	=19	=19
1C	0G	1e	1c	2.g
.	.	.	.	4a
2.GG	.	1d	1BnX	2bnX
.	.	.	.	2cc
4AA	.	.	.	.
=20	=20	=20	=20	=20
2.BBnX	1G	1BnX	0d	1.dd
4C	.	.	.	.
1D	1F	1A	.	.
.	.	.	.	4cc
.	.	.	.	4bnX
=21	=21	=21	=21	=21
2AA	1E	1A	0e	1cc
1C	.	.	.	.
.	[1G	1c	.	2g
2C	.	.	.	[2cc
=22	=22	=22	=22	=22
1C	1G]	2G	0e	2cc]
.	.	1c	.	2cc
1AA	1A	.	.	2.cc
.	.	2c	.	.
.	.	.	.	4bnX
=23	=23	=23	=23	=23
2D	0A	0d	0r	2.a
2D	.	.	.	.
.	.	.	.	4g
1D	.	.	.	4f
.	.	.	.	4e
.	.	.	.	2f
=24	=24	=24	=24	=24
0AA	0A	0c	0r	1e
.	.	.	.	1r
=25	=25	=25	=25	=25
0r	0r	1r	0r	1a
.	.	1e	.	1g
=26	=26	=26	=26	=26
0r	0r	1d	0r	1b-y
.	.	1f	.	1a
=27	=27	=27	=27	=27
0r	0r	1e	0r	1g
.	.	1d	.	1f
=28	=28	=28	=28	=28
1A	0r	1c	0r	1e
1G	.	1B-y	.	1g
=29	=29	=29	=29	=29
1B-y	0r	1d	0r	1g
[1A	.	1e	.	1a
=30	=30	=30	=30	=30
1A]	0r	2.f	0r	1a
.	.	4e	.	.
1G	.	[1e	.	1r
=31	=31	=31	=31	=31
1F	0r	2e]	0r	1a
.	.	2d	.	.
1E	.	2e	.	1g
.	.	2c	.	.
=32	=32	=32	=32	=32
1G	0r	1d	0r	1b-y
2A	.	2c	.	2a
[2B-y	.	2d	.	2f
=33	=33	=33	=33	=33
4B-]	0r	2.c	0r	2b-y
4A	.	.	.	.
1A	.	.	.	2cc
.	.	8B-yL	.	.
.	.	8AJ	.	.
.	.	2B-y	.	2dd
2G	.	2B-y	.	2dd
=34	=34	=34	=34	=34
1A	0A	1A	0r	1cc
2r	.	2r	.	2r
2AA	.	2E	.	2cc
=35	=35	=35	=35	=35
1C	1G	1E	1e	2cc
.	.	.	.	1.dd
[1BB-y	[1B-y	1F	1d	.
=36	=36	=36	=36	=36
2BB-]	1B-]	2D	0f	0dd
2C	.	2E	.	.
2D	[1A	2.F	.	.
2D	.	.	.	.
.	.	4G	.	.
=37	=37	=37	=37	=37
1AA	1A]	2A	0e	1cc
.	.	2B-y	.	.
1C	1G	2.c	.	1ee
.	.	8cL	.	.
.	.	8B-yJ	.	.
=38	=38	=38	=38	=38
2D	1F	2A	1d	2ff
2BB-y	.	2B-y	.	2dd
2C	1E	1G	1c	1ee
2C	.	.	.	.
=39	=39	=39	=39	=39
1GG	0G	2r	1B-y	1.dd
.	.	2d	.	.
2r	.	2.B-y	1d	.
2GG	.	.	.	2dd
.	.	4A	.	.
=40	=40	=40	=40	=40
2GG	1G	4G	0d	1b-y
.	.	4F	.	.
1.D	.	2G	.	.
.	1A	2F	.	2r
.	.	2D	.	[2a
=41	=41	=41	=41	=41
2D	0A	1F	0e	2a]
2D	.	.	.	2f
1AA	.	1E	.	2c
.	.	.	.	2cc
=42	=42	=42	=42	=42
0AA	0r	2r	0e	1cc
.	.	2.A	.	.
.	.	.	.	2.a
.	.	4B-y	.	.
.	.	4c	.	.
.	.	4d	.	4dd
=43	=43	=43	=43	=43
1A	0r	2e	0r	4cc
.	.	.	.	4dd
.	.	2c	.	2ee
1F	.	1f	.	2dd
.	.	.	.	[2cc
=44	=44	=44	=44	=44
1G	0r	1d	0g	2cc]
.	.	.	.	4bnX
.	.	.	.	4a
1G	.	1d	.	1bni
=45	=45	=45	=45	=45
0C	0c	0e	0g	0cc
=46	=46	=46	=46	=46
1.F	0c	1f	0a	1r
.	.	1f	.	1cc
2F	.	.	.	.
=47	=47	=47	=47	=47
1D	0d	1.f	0a	1ff
2r	.	.	.	1ff
2D	.	2f	.	.
=48	=48	=48	=48	=48
1G	0d	4B-y	1g	1.dd
.	.	4c	.	.
.	.	4d	.	.
.	.	4e	.	.
2D	.	2f	1f	.
2F	.	[2d	.	2dd
=49	=49	=49	=49	=49
2E	0r	4d]	1g	1ee
.	.	4c	.	.
2C	.	1c	.	.
2D	.	.	1f	2ff
2D	.	2BnX	.	2dd
=50	=50	=50	=50	=50
1C	1r	1c	1e	2ee
.	.	.	.	2.cc
2r	1c	2r	1e	.
.	.	.	.	4b-y
2C	.	2c	.	[2g
=51	=51	=51	=51	=51
1G	1B-y	2d	0r	4g]
.	.	.	.	4a
.	.	2e	.	2.b-y
1F	1c	1f	.	.
.	.	.	.	4a
.	.	.	.	[2a
=52	=52	=52	=52	=52
1G	1B-y	1d	0r	2a]
.	.	.	.	2g
2D	1A	1r	.	1a
[2F	.	.	.	.
=53	=53	=53	=53	=53
4F]	1A	1f	0r	1r
4E	.	.	.	.
4D	.	.	.	.
4C	.	.	.	.
1BB-y	1r	1d	.	1b-y
=54	=54	=54	=54	=54
1r	0r	1c	0r	1g
1B-y	.	1d	.	1f
=55	=55	=55	=55	=55
1G	0r	1e	0r	1g
1F	.	1f	.	1a
=56	=56	=56	=56	=56
1G	0r	2d	0r	2g
.	.	2g	.	2.b-y
1A	.	2f	.	.
.	.	.	.	4a
.	.	[2e	.	2a
=57	=57	=57	=57	=57
1B-y	0r	2e]	0r	2g
.	.	2d	.	1.a
1A	.	1e	.	.
=58	=58	=58	=58	=58
2AA	0r	2r	0r	2r
2D	.	2f	.	1.cc
2C	.	2e	.	.
2AA	.	2c	.	.
=59	=59	=59	=59	=59
0BB-y	0B-y	1f	0r	1dd
.	.	2g	.	1dd
.	.	[2f	.	.
=60	=60	=60	=60	=60
0C	0G	2f]	0r	0cc
.	.	4e	.	.
.	.	4d	.	.
.	.	1e	.	.
=61	=61	=61	=61	=61
0D	0F	2.d	0f	1a
.	.	4c	.	.
.	.	2B-y	.	2r
.	.	2A	.	2a
=62	=62	=62	=62	=62
0BB-y	0G	2B-y	0d	2dd
.	.	2.G	.	2dd
.	.	.	.	1b-y
.	.	4F	.	.
.	.	2D	.	.
=63	=63	=63	=63	=63
1.AA	0A	2F	0c	1cc
.	.	4E	.	.
.	.	4D	.	.
.	.	1E	.	2r
2AA	.	.	.	2cc
=64	=64	=64	=64	=64
2D	0A	2r	0d	2a
2D	.	2d	.	2a
1D	.	2d	.	1dd
.	.	2d	.	.
=65	=65	=65	=65	=65
1AA	0r	4c	0e	2cc
.	.	4B-y	.	.
.	.	4A	.	2cc
.	.	4G	.	.
2r	.	2A	.	2cc
2C	.	4G	.	2cc
.	.	4F	.	.
=66	=66	=66	=66	=66
2C	0r	1G	0e	1cc
2C	.	.	.	.
1C	.	2r	.	1g
.	.	[2G	.	.
=67	=67	=67	=67	=67
1GG	1B-y	4G]	0r	2r
.	.	4A	.	.
.	.	4B-y	.	2g
.	.	4c	.	.
2r	1G	2d	.	2b-y
2C	.	2e	.	2cc
=68	=68	=68	=68	=68
1D	1F	4f	1f	1a
.	.	4e	.	.
.	.	4d	.	.
.	.	4c	.	.
1BB-y	1G	2d	1d	1b-y
.	.	2d	.	.
=69	=69	=69	=69	=69
1AA	0A	2f	1c	1cc
.	.	2e	.	.
1D	.	1f	1d	2r
.	.	.	.	2a
=70	=70	=70	=70	=70
2AA	0A	0E	0e	2a
2AA	.	.	.	2a
2AA	.	.	.	1a
2AA	.	.	.	.
=71	=71	=71	=71	=71
1.C	0A	2r	0e	1e
.	.	2E	.	.
.	.	2A	.	1r
2AA	.	2A	.	.
=72	=72	=72	=72	=72
0AA	0A	2A	0e	2r
.	.	2A	.	2a
.	.	1E	.	2a
.	.	.	.	2a
=73	=73	=73	=73	=73
0AA	2r	0A	0e	1.cc
.	2E	.	.	.
.	2A	.	.	.
.	2A	.	.	2a
=74	=74	=74	=74	=74
[0AAl	1.A	[0Al	[0el	[0al
.	4G	.	.	.
.	4F	.	.	.
=75	=75	=75	=75	=75
00AA]	00El	00A]	00e]	00a]
==	==	==	==	==
*-	*-	*-	*-	*-
!!!system-decoration: [*]
!!!RDF**kern: i = editorial accidental
!!!RDF**kern: l = terminal long
!!!!PTL: <i> New Senfl Edition: Motets for Five Voices</i>
!!!PPR: Hollitzer Verlag
!!!PC#: Denkmäler der Tonkunst in Österreich 163.3
!!!PDT: 2022
!!!PED: Scott Lee Edwards, Stefan Gasch, and Sonja Tröster
!!!YEC: Copyright 2022 Denkmäler der Tonkunst in Österreich
!!!YEM: CC-BY-NC 4.0 (https://creativecommons.org/licenses/by-nc/4.0/legalcode)
!!!EED: Benjamin Ory
!!!EEV: 2025/11/7
!!!verovio: header encoded
!!!header-left: @{PTL}\n@{PED}, eds.\n@{PC#} (@{PDT})&nbsp;\n
!!!header-right:
!!!header-center: